X:1
T:Title
%%score [ ( 1 2 ) ( 3 4 ) ]
L:1/8
Q:1/4=120
M:4/4
K:D
V:1 treble nm="Midi_74"
V:2 treble 
V:3 bass nm="Midi_74"
V:4 bass 
V:1
 A8 | A4 F4 | d8 || B8 | E4 F4 |"^Jonathan Battishill\n(1738-1801)" G4 G4 | F8 |] %7
V:2
 F8 | E4 D4 | D8 || D8 | C4 D4 | D4 C4 | D8 |] %7
V:3
 D8 | C4 B,4 | A,8 || B,8 | A,4 A,4 | B,4 A,4 | A,8 |] %7
V:4
 D,8 | A,4 B,4 | F,8 || G,8 | G,4 F,4 | E,4 A,,4 | D,8 |] %7

